X:1
T:Mendocino, 87.87 D
T:Mendocino, 87.87 D
T:John Henry Showalter, 1904
T:Public Domain Courtesy of the Cyber Hymnal™
C:John Henry Showalter, 1904
Z:Public Domain
Z:Courtesy of the Cyber Hymnal™
%%score ( 1 2 ) ( 3 4 )
L:1/8
Q:1/4=95
M:3/4
K:Ab
V:1 treble 
V:2 treble 
V:3 bass 
V:4 bass 
V:1
 [CE]>[CE] | [EA]3 [EA] [Ec]>[DB] | [DB]2 [CA]2 [EA]>[EA] | [FA]3 [FA] [Fd]>[Fd] | %4
 [Ec]4 [Ec]>[Ec] | [=Ec]3 [EG] [Ec]>[EB] | [FB]2 [FA]2 [FB]>[Fd] | [Ec]3 [EA] [EG]>[EB] | %8
 [EA]4 [EG]>[EA] | [GB]3 [GB] [Ac]>[EB] | [EB]2 [EA]2 [EA]>[Ec] | [Ae]3 [Ac] A>[Ac] | %12
 [GB]4 [Ge]>[Ge] | [Ae]3 [Ac] [Ad]>[Ac] | [FB]2 [FA]2 [DF]>[DF] | [CE]3 [EA] [EB]>[Ec] | [EA]4 |] %17
V:2
 x2 | x6 | x6 | x6 | x6 | x6 | x6 | x6 | x6 | x6 | x6 | x4 A3/2 x/ | x6 | x6 | x6 | x6 | x4 |] %17
V:3
 [A,,A,]>[A,,A,] | [A,,C]3 [C,A,] [E,A,]>[E,G,] | [A,,A,]2 [A,,A,]2 [C,A,]>[C,A,] | %3
 [D,A,]3 [D,A,] [D,A,]>[D,A,] | [A,,A,]4 [A,,A,]>[A,,A,] | [C,G,]3 [C,C] [C,C]>[C,C] | %6
 [F,C]2 [F,C]2 [D,D]>[D,A,] | [E,A,]3 [E,B,] [E,A,]>[E,D] | [A,,C]4 [E,B,]>[E,C] | %9
 [E,D]3 [E,D] [E,E]>[E,D] | [A,D]2 [A,C]2 [A,C]>A, | [A,C]3 [A,E] [CE]>[A,E] | %12
 [E,E]4 [E,B,]>[E,B,] | [A,C]3 [A,E] [A,F]>[A,E] | [D,D]2 [D,D]2 [D,A,]>[D,A,] | %15
 [E,A,]3 [E,C] [E,D]>[E,E] | [A,,C]4 |] %17
V:4
 x2 | x6 | x6 | x6 | x6 | x6 | x6 | x6 | x6 | x6 | x11/2 A,/ | x6 | x6 | x6 | x6 | x6 | x4 |] %17

